X:47
T: Wiedersehen an der Bahre
N: Q0056C
O: Mitteleuropa, Deutschland (BRD) , Rheinland, Wuppertal, Beyenburg
R: Ballade, Abschied, Enttaeuschung, Tod, Selbstmord
M: 3/4
L: 1/8
K: Eb
E | EGB2AG | BFF2z
F | FcB2F2 | A2G2z
B | Bdf3A | GBe3
e | dcB2F2 | A2G2z

